svg/fluentui-system-icons/ic_fluent_data_histogram_20_regular.svg

<svg width="20" height="20" viewBox="0 0 20 20" fill="none" xmlns="http://www.w3.org/2000/svg">
<path d="M8 5V16H12V5C12 4.44772 11.5523 4 11 4H9C8.44772 4 8 4.44772 8 5ZM7 9V5C7 3.89543 7.89543 3 9 3H11C12.1046 3 13 3.89543 13 5V6H15C16.1046 6 17 6.89543 17 8V16.5C17 16.7761 16.7761 17 16.5 17H3.5C3.22386 17 3 16.7761 3 16.5V11C3 9.89543 3.89543 9 5 9H7ZM7 16V10H5C4.44772 10 4 10.4477 4 11V16H7ZM13 16H16V8C16 7.44772 15.5523 7 15 7H13V16Z" fill="#212121"/>
</svg>

<svg xmlns="http://www.w3.org/2000/svg" width="20" height="20"><path d="M8 5v11h4V5a1 1 0 0 0-1-1H9a1 1 0 0 0-1 1ZM7 9V5a2 2 0 0 1 2-2h2a2 2 0 0 1 2 2v1h2a2 2 0 0 1 2 2v8.5a.5.5 0 0 1-.5.5h-13a.5.5 0 0 1-.5-.5V11a2 2 0 0 1 2-2h2Zm0 7v-6H5a1 1 0 0 0-1 1v5h3Zm6 0h3V8a1 1 0 0 0-1-1h-2v9Z"/></svg>
